art/system/scv.svg

<?xml version="1.0" encoding="utf-8"?>
<svg version="1.1" id="Layer_1" x="0px" y="0px" viewBox="0 0 3839 358.8" style="enable-background:new 0 0 3839 358.8;" xmlns="http://www.w3.org/2000/svg">
  <style type="text/css" id="style2">
	.st0{fill:#FF221D;}
	.st1{fill:#FDEB05;}
	.st2{display:none;}
	.st3{display:inline;}
	.st4{fill:#FBE901;}
	.st5{fill:#FFFFFF;}
</style>
  <path class="st0" d="M 1575.1 358.8 C 1567.1 358.8 1563.8 357.2 1560.9 355.2 L 1576.9 284.1 C 1604.7 279.9 1616.2 260.8 1622.1 210.2 C 1636.7 83.5 1721.3 76.1 1730.8 75.7 C 1731.9 75.6 1732.9 75.6 1733.9 75.6 C 1736.9 75.6 1739.4 75.8 1743.2 76.5 L 1726.2 151.9 C 1698.7 155.7 1692.5 179.3 1681.3 247.6 C 1664.4 349.8 1592.5 358.1 1578.3 358.7 C 1577.2 358.7 1576.1 358.8 1575.1 358.8 L 1575.1 358.8 Z" id="path4" style="fill-opacity: 1; fill: rgb(255, 255, 255);"/>
  <path class="st0" d="M 3027.5 358.8 C 3019.5 358.8 3016.2 357.2 3013.3 355.2 L 3029.3 284.1 C 3057.1 279.9 3068.6 260.8 3074.5 210.2 C 3089.1 83.5 3173.6 76.1 3183.2 75.7 C 3184.3 75.6 3185.3 75.6 3186.3 75.6 C 3189.3 75.6 3191.8 75.8 3195.6 76.5 L 3178.6 151.9 C 3151.1 155.7 3144.9 179.3 3133.7 247.6 C 3116.8 349.8 3044.9 358.1 3030.7 358.7 C 3029.5 358.7 3028.5 358.8 3027.5 358.8 L 3027.5 358.8 Z" id="path6" style="fill-opacity: 1; fill: rgb(255, 255, 255);"/>
  <path class="st0" d="M 1458 358.8 C 1450 358.8 1446.7 357.2 1443.8 355.2 L 1459.8 284.1 C 1487.6 279.9 1499.1 260.8 1505 210.2 C 1519.6 83.5 1604.2 76.1 1613.7 75.7 C 1614.8 75.6 1615.8 75.6 1616.8 75.6 C 1619.8 75.6 1622.3 75.8 1626.1 76.5 L 1609.1 151.9 C 1581.6 155.7 1575.4 179.3 1564.2 247.6 C 1547.3 349.8 1475.4 358.1 1461.2 358.7 C 1460.1 358.7 1459 358.8 1458 358.8 L 1458 358.8 Z" id="path8" style="fill-opacity: 1; fill: rgb(255, 255, 255);"/>
  <rect x="2702.5" class="st0" width="72.7" height="358.8" id="rect10" style="fill-opacity: 1; fill: rgb(255, 255, 255);"/>
  <path class="st0" d="M 3440 75.6 C 3359.9 75.6 3292.7 133.8 3285.7 213.8 C 3278.7 293.8 3337.9 358.8 3418 358.8 C 3498.1 358.8 3576.2 296.5 3575.7 213.8 C 3575.1 133.4 3520 75.6 3440 75.6 Z M 3491 266.5 C 3472 285.6 3444.7 297.1 3418 297.1 C 3396.9 297.1 3378 289.2 3364.9 274.9 C 3351.6 260.4 3345.3 240.7 3347.2 219.3 C 3351.3 172.6 3391.2 137.4 3440 137.4 C 3485.3 137.4 3513.6 166.9 3514 214.3 C 3514.1 238.2 3501.6 255.9 3491 266.5 L 3491 266.5 Z" id="path12" style="fill-opacity: 1; fill: rgb(255, 255, 255);"/>
  <path class="st0" d="M 1418.7 358.2 L 1354.9 358.2 L 1386.2 219.2 C 1386.3 217.4 1386.4 215.5 1386.4 213.6 C 1386.1 166.2 1357.7 136.7 1312.4 136.7 C 1263.6 136.7 1223.7 171.9 1219.6 218.6 C 1217.7 240 1224 259.7 1237.3 274.2 C 1250.4 288.5 1269.3 296.4 1290.4 296.4 C 1309.1 296.4 1328.1 290.8 1344.3 280.9 L 1327.9 353.7 L 1327.5 353.8 C 1327.5 353.8 1302.9 358.2 1290.4 358.2 C 1210.3 358.2 1151.1 293.3 1158.1 213.2 C 1165.1 133.1 1232.3 75 1312.4 75 C 1392.5 75 1447.5 132.9 1448.1 213.2 C 1448.2 220.8 1447.5 228.2 1446.3 235.3 L 1418.7 358.2 Z" id="path14" style="fill-opacity: 1; fill: rgb(255, 255, 255);"/>
  <path class="st0" d="M 2122.9 144.8 L 2171 144.8 L 2183.9 87.5 L 2135.8 87.5 L 2155.5 0 L 2088.6 0 L 2029.8 260.7 C 2029.8 260.7 2028.5 266.6 2028 268.6 C 2017.3 314.2 2029.2 358.8 2088.5 358.8 C 2088.5 358.8 2095.7 358.8 2097 358.8 L 2129.2 301.5 L 2101.1 301.5 C 2089.2 301.5 2090.1 289.5 2093 277 C 2100.2 246 2122.9 144.8 2122.9 144.8 L 2122.9 144.8 Z" id="path16" style="fill-opacity: 1; fill: rgb(255, 255, 255);"/>
  <path class="st0" d="M 2269.1 144.8 L 2317.2 144.8 L 2330.1 87.5 L 2282 87.5 L 2301.8 0 L 2234.9 0 L 2176.1 260.7 C 2176.1 260.7 2174.8 266.6 2174.3 268.6 C 2163.6 314.2 2175.5 358.8 2234.8 358.8 C 2234.8 358.8 2242 358.8 2243.3 358.8 L 2275.5 301.5 L 2247.4 301.5 C 2235.5 301.5 2236.4 289.5 2239.3 277 C 2246.4 246 2269.1 144.8 2269.1 144.8 L 2269.1 144.8 Z" id="path18" style="fill-opacity: 1; fill: rgb(255, 255, 255);"/>
  <path class="st0" d="M 1137.1 358.4 C 1089.6 353.9 1047.3 333.6 1019.4 301.7 C 991.2 269.4 978.9 227.8 983.7 181.4 C 999.5 31.3 1130.7 0.8 1238.6 1.7 L 1224.8 63.5 C 1077.9 65.9 1051 132.4 1045.1 187.9 C 1037.5 260.3 1093.4 295.1 1150.8 297.6 L 1137.1 358.4 Z" id="path20" style="fill-opacity: 1; fill: rgb(255, 255, 255);"/>
  <path class="st0" d="M 2981.7 87.5 L 2920.5 358.8 L 2987.4 358.8 C 2999.1 306.9 3028.6 176.1 3048.5 87.5 C 3048.6 87.5 2981.7 87.5 2981.7 87.5 Z" id="path22" style="fill-opacity: 1; fill: rgb(255, 255, 255);"/>
  <path class="st0" d="M 3298.8 57.3 C 3306.4 23.8 3311.7 0 3311.7 0 L 3244.8 0 L 3231.9 57.3 L 3298.8 57.3 Z" id="path24" style="fill-opacity: 1; fill: rgb(255, 255, 255);"/>
  <path class="st0" d="M 3225.1 87.5 L 3163.9 358.8 L 3230.8 358.8 C 3242.5 306.9 3272 176.1 3291.9 87.5 C 3292 87.5 3225.1 87.5 3225.1 87.5 Z" id="path26" style="fill-opacity: 1; fill: rgb(255, 255, 255);"/>
  <path class="st0" d="M 3633.9 87.5 L 3572.7 358.8 L 3639.6 358.8 C 3651.3 306.9 3680.8 176.1 3700.7 87.5 C 3700.8 87.5 3633.9 87.5 3633.9 87.5 Z" id="path30" style="fill-opacity: 1; fill: rgb(255, 255, 255);"/>
  <path class="st0" d="M 3692.3 87.5 L 3679.4 144.8 L 3754.7 144.8 C 3763.9 144.8 3770.8 153.4 3768.7 162.4 L 3724.4 358.8 L 3791.3 358.8 C 3800.3 318.8 3820 231.7 3837.6 153.5 C 3845.2 119.7 3819.5 87.6 3784.8 87.6 L 3692.3 87.5 Z" id="path34" style="fill-opacity: 1; fill: rgb(255, 255, 255);"/>
  <path class="st0" d="M 3026.1 0 L 3001.5 0 L 2974.5 0 C 2953.1 0 2933.3 10.9 2921.9 29 L 2713.7 358.8 L 2799.7 358.8 L 2990 57.3 L 3055.5 57.3 C 3063 23.8 3068.4 0 3068.4 0 L 3026.1 0 Z" id="path36" style="fill-opacity: 1; fill: rgb(255, 255, 255);"/>
  <path class="st0" d="M 2406 282.4 L 2605.8 184.6 C 2593.8 119.8 2542.9 75.5 2472.9 75.5 C 2392.8 75.5 2325.6 133.7 2318.6 213.7 C 2311.6 293.8 2370.8 358.7 2450.9 358.7 C 2463.9 358.7 2476.8 357.1 2489.3 354 C 2490.7 353.7 2492 353.3 2493.4 352.9 L 2510.3 277.8 C 2492.9 290 2471.7 296.9 2450.9 296.9 C 2433.8 297.1 2418.3 291.9 2406 282.4 Z M 2380 219.2 C 2384.1 172.5 2424 137.3 2472.8 137.3 C 2497.6 137.3 2517.2 146.1 2530.1 161.8 L 2380.2 235.2 C 2379.6 230 2379.5 224.6 2380 219.2 L 2380 219.2 Z" id="path40" style="fill-opacity: 1; fill: rgb(255, 255, 255);"/>
  <path class="st0" d="M 1823.9 282.4 L 2023.7 184.6 C 2011.7 119.8 1960.8 75.5 1890.8 75.5 C 1810.7 75.5 1743.5 133.7 1736.5 213.7 C 1729.5 293.8 1788.7 358.7 1868.8 358.7 C 1881.8 358.7 1894.7 357.1 1907.2 354 C 1908.6 353.7 1909.9 353.3 1911.3 352.9 L 1928.2 277.8 C 1910.8 290 1889.6 296.9 1868.8 296.9 C 1851.7 297.1 1836.2 291.9 1823.9 282.4 L 1823.9 282.4 Z M 1797.9 219.2 C 1802 172.5 1841.9 137.3 1890.7 137.3 C 1915.5 137.3 1935.1 146.1 1948 161.8 L 1798.1 235.2 C 1797.5 230 1797.5 224.6 1797.9 219.2 L 1797.9 219.2 Z" id="path42" style="fill-opacity: 1; fill: rgb(255, 255, 255);"/>
  <path class="st1" d="M 327.639 289.261 L 328.364 286.052 C 322.256 287.811 313.975 289.261 303.002 289.261 L 277.536 289.261 C 263.458 289.261 250.311 282.946 241.408 271.869 C 232.609 260.896 229.296 246.611 232.402 232.843 L 257.04 123.734 L 307.764 123.734 L 282.505 235.845 C 282.091 237.812 282.505 239.882 283.747 241.435 C 284.99 242.988 286.853 243.919 288.923 243.919 L 324.637 243.919 C 332.401 243.919 339.027 238.64 340.683 231.083 L 365.01 123.734 L 415.734 123.734 L 378.364 289.364 L 327.639 289.261 Z" id="path82" style="stroke-width: 1.03519; fill-opacity: 1; fill: rgb(255, 255, 255);"/>
  <path class="st1" d="M 778.568 289.261 L 815.938 123.63 L 866.663 123.63 L 865.938 126.839 C 872.046 125.08 880.327 123.63 891.3 123.63 L 924.944 123.63 L 914.696 168.972 L 869.665 168.972 C 861.901 168.972 855.276 174.251 853.619 181.808 L 829.396 289.157 L 778.568 289.261 Z" id="path88" style="stroke-width: 1.03519; fill-opacity: 1; fill: rgb(255, 255, 255);"/>
  <path class="st1" d="M 647.824 289.261 C 633.745 289.261 620.598 282.946 611.696 271.869 C 602.896 260.896 599.584 246.611 602.689 232.843 L 616.354 171.974 C 622.876 143.609 647.72 123.734 677.016 123.734 L 734.573 123.734 C 748.651 123.734 761.798 130.048 770.701 141.125 C 779.5 152.098 782.812 166.384 779.707 180.152 L 778.051 187.501 C 773.703 206.549 760.245 221.249 742.751 227.563 L 768.837 227.563 L 765.835 241.021 C 759.417 269.489 734.573 289.468 705.277 289.468 L 647.824 289.468 L 647.824 289.261 Z M 652.793 235.845 C 652.379 237.812 652.793 239.882 654.035 241.435 C 655.277 242.988 657.14 243.919 659.211 243.919 L 702.792 243.919 C 709.625 243.919 715.422 239.261 716.974 232.636 L 717.388 230.772 L 653.931 230.772 L 652.793 235.845 Z M 719.148 185.328 C 724.117 185.328 728.465 181.911 729.5 177.046 C 729.914 175.079 729.5 173.112 728.258 171.56 C 727.016 170.007 725.152 169.179 723.185 169.179 L 681.053 169.179 C 673.289 169.179 666.664 174.458 665.008 182.015 L 664.283 185.328 L 719.148 185.328 Z" id="path94" style="stroke-width: 1.03519; fill-opacity: 1; fill: rgb(255, 255, 255);"/>
  <path class="st1" d="M 398.343 305.513 L 439.336 123.734 L 490.061 123.734 L 489.336 126.943 C 495.444 125.183 503.725 123.734 514.698 123.734 L 545.961 123.734 C 560.04 123.734 573.186 130.048 582.089 141.125 C 590.888 152.098 594.201 166.384 591.095 180.152 L 579.191 233.153 C 572.772 261.621 547.928 281.6 518.632 281.6 L 482.09 281.6 C 469.46 281.6 460.972 279.633 455.382 277.459 L 448.964 305.72 L 398.343 305.513 Z M 492.959 169.075 C 485.195 169.075 478.57 174.355 476.914 181.911 L 466.562 227.874 C 466.148 229.841 466.562 231.911 467.804 233.464 C 469.046 235.017 470.91 235.948 472.98 235.948 L 514.491 235.948 C 522.255 235.948 528.88 230.669 530.64 223.112 L 540.992 177.15 C 541.406 175.183 540.992 173.112 539.75 171.56 C 538.508 170.007 536.644 169.075 534.574 169.075 L 492.959 169.075 Z" id="path100" style="stroke-width: 1.03519; fill-opacity: 1; fill: rgb(255, 255, 255);"/>
  <path class="st1" d="M 46.275 289.261 C 32.196 289.261 19.049 282.946 10.147 271.869 C 1.348 260.896 -1.965 246.611 1.141 232.843 L 2.279 227.667 L 7.662 227.356 L 53.004 227.356 L 51.14 235.741 C 50.726 237.708 51.14 239.779 52.382 241.331 C 53.625 242.884 55.488 243.816 57.558 243.816 L 142.651 243.816 C 150.415 243.816 157.04 238.536 158.8 230.979 L 162.734 213.485 C 163.458 210.483 162.734 207.274 160.767 204.789 C 158.8 202.305 155.901 200.959 152.796 200.959 L 70.291 200.959 C 55.177 200.959 41.099 194.23 31.575 182.326 C 22.155 170.524 18.635 155.307 21.948 140.504 L 25.778 123.32 C 32.3 94.955 57.248 75.08 86.44 75.08 L 186.543 75.08 C 200.725 75.08 213.872 81.395 222.671 92.471 C 231.47 103.548 234.783 117.73 231.574 131.498 L 230.435 136.674 L 225.156 136.881 L 180.228 136.881 L 182.092 128.496 C 182.506 126.529 182.092 124.458 180.85 122.906 C 179.607 121.353 177.744 120.421 175.674 120.421 L 90.477 120.421 C 82.714 120.421 76.088 125.701 74.432 133.258 L 72.258 143.092 C 71.533 146.094 72.258 149.303 74.225 151.787 C 76.192 154.272 79.09 155.618 82.196 155.618 L 175.984 155.618 C 188.303 155.618 199.794 161.104 207.454 170.731 C 215.114 180.359 218.013 192.781 215.218 204.789 L 206.936 240.917 C 200.415 269.281 175.57 289.157 146.481 289.157 L 46.275 289.261 Z" id="path106" style="stroke-width: 1.03519; fill-opacity: 1; fill: rgb(255, 255, 255);"/>
</svg>

<svg xmlns="http://www.w3.org/2000/svg" xml:space="preserve" id="Layer_1" x="0" y="0" viewBox="0 0 3839 358.8"><style id="style2" type="text/css">.st0{fill:#ff221d}.st1{fill:#fdeb05}</style><g id="g2979"><g id="g44" style="fill:#fff;fill-opacity:1"><path id="path4" d="M1575.1 358.8c-8 0-11.3-1.6-14.2-3.6l16-71.1c27.8-4.2 39.3-23.3 45.2-73.9 14.6-126.7 99.2-134.1 108.7-134.5 1.1-.1 2.1-.1 3.1-.1 3 0 5.5.2 9.3.9l-17 75.4c-27.5 3.8-33.7 27.4-44.9 95.7-16.9 102.2-88.8 110.5-103 111.1-1.1 0-2.2.1-3.2.1" class="st0" style="fill:#fff;fill-opacity:1"/><path id="path6" d="M3027.5 358.8c-8 0-11.3-1.6-14.2-3.6l16-71.1c27.8-4.2 39.3-23.3 45.2-73.9 14.6-126.7 99.1-134.1 108.7-134.5 1.1-.1 2.1-.1 3.1-.1 3 0 5.5.2 9.3.9l-17 75.4c-27.5 3.8-33.7 27.4-44.9 95.7-16.9 102.2-88.8 110.5-103 111.1-1.2 0-2.2.1-3.2.1" class="st0" style="fill:#fff;fill-opacity:1"/><path id="path8" d="M1458 358.8c-8 0-11.3-1.6-14.2-3.6l16-71.1c27.8-4.2 39.3-23.3 45.2-73.9 14.6-126.7 99.2-134.1 108.7-134.5 1.1-.1 2.1-.1 3.1-.1 3 0 5.5.2 9.3.9l-17 75.4c-27.5 3.8-33.7 27.4-44.9 95.7-16.9 102.2-88.8 110.5-103 111.1-1.1 0-2.2.1-3.2.1" class="st0" style="fill:#fff;fill-opacity:1"/><path id="rect10" d="M2702.5 0h72.7v358.8h-72.7z" class="st0" style="fill:#fff;fill-opacity:1"/><path id="path12" d="M3440 75.6c-80.1 0-147.3 58.2-154.3 138.2s52.2 145 132.3 145 158.2-62.3 157.7-145c-.6-80.4-55.7-138.2-135.7-138.2m51 190.9c-19 19.1-46.3 30.6-73 30.6-21.1 0-40-7.9-53.1-22.2-13.3-14.5-19.6-34.2-17.7-55.6 4.1-46.7 44-81.9 92.8-81.9 45.3 0 73.6 29.5 74 76.9.1 23.9-12.4 41.6-23 52.2" class="st0" style="fill:#fff;fill-opacity:1"/><path id="path14" d="M1418.7 358.2h-63.8l31.3-139c.1-1.8.2-3.7.2-5.6-.3-47.4-28.7-76.9-74-76.9-48.8 0-88.7 35.2-92.8 81.9-1.9 21.4 4.4 41.1 17.7 55.6 13.1 14.3 32 22.2 53.1 22.2 18.7 0 37.7-5.6 53.9-15.5l-16.4 72.8-.4.1s-24.6 4.4-37.1 4.4c-80.1 0-139.3-64.9-132.3-145S1232.3 75 1312.4 75s135.1 57.9 135.7 138.2c.1 7.6-.6 15-1.8 22.1z" class="st0" style="fill:#fff;fill-opacity:1"/><path id="path16" d="M2122.9 144.8h48.1l12.9-57.3h-48.1L2155.5 0h-66.9l-58.8 260.7s-1.3 5.9-1.8 7.9c-10.7 45.6 1.2 90.2 60.5 90.2h8.5l32.2-57.3h-28.1c-11.9 0-11-12-8.1-24.5 7.2-31 29.9-132.2 29.9-132.2" class="st0" style="fill:#fff;fill-opacity:1"/><path id="path18" d="M2269.1 144.8h48.1l12.9-57.3H2282L2301.8 0h-66.9l-58.8 260.7s-1.3 5.9-1.8 7.9c-10.7 45.6 1.2 90.2 60.5 90.2h8.5l32.2-57.3h-28.1c-11.9 0-11-12-8.1-24.5 7.1-31 29.8-132.2 29.8-132.2" class="st0" style="fill:#fff;fill-opacity:1"/><path id="path20" d="M1137.1 358.4c-47.5-4.5-89.8-24.8-117.7-56.7-28.2-32.3-40.5-73.9-35.7-120.3C999.5 31.3 1130.7.8 1238.6 1.7l-13.8 61.8c-146.9 2.4-173.8 68.9-179.7 124.4-7.6 72.4 48.3 107.2 105.7 109.7z" class="st0" style="fill:#fff;fill-opacity:1"/><path id="path22" d="m2981.7 87.5-61.2 271.3h66.9c11.7-51.9 41.2-182.7 61.1-271.3z" class="st0" style="fill:#fff;fill-opacity:1"/><g id="g28" style="fill:#fff;fill-opacity:1"><path id="path24" d="M3298.8 57.3c7.6-33.5 12.9-57.3 12.9-57.3h-66.9l-12.9 57.3z" class="st0" style="fill:#fff;fill-opacity:1"/><path id="path26" d="m3225.1 87.5-61.2 271.3h66.9c11.7-51.9 41.2-182.7 61.1-271.3z" class="st0" style="fill:#fff;fill-opacity:1"/></g><g id="g32" style="fill:#fff;fill-opacity:1"><path id="path30" d="m3633.9 87.5-61.2 271.3h66.9c11.7-51.9 41.2-182.7 61.1-271.3z" class="st0" style="fill:#fff;fill-opacity:1"/></g><path id="path34" d="m3692.3 87.5-12.9 57.3h75.3c9.2 0 16.1 8.6 14 17.6l-44.3 196.4h66.9c9-40 28.7-127.1 46.3-205.3 7.6-33.8-18.1-65.9-52.8-65.9z" class="st0" style="fill:#fff;fill-opacity:1"/><g id="g38" style="fill:#fff;fill-opacity:1"><path id="path36" d="M3026.1 0h-51.6c-21.4 0-41.2 10.9-52.6 29l-208.2 329.8h86L2990 57.3h65.5C3063 23.8 3068.4 0 3068.4 0Z" class="st0" style="fill:#fff;fill-opacity:1"/></g><path id="path40" d="m2406 282.4 199.8-97.8c-12-64.8-62.9-109.1-132.9-109.1-80.1 0-147.3 58.2-154.3 138.2-7 80.1 52.2 145 132.3 145 13 0 25.9-1.6 38.4-4.7 1.4-.3 2.7-.7 4.1-1.1l16.9-75.1c-17.4 12.2-38.6 19.1-59.4 19.1-17.1.2-32.6-5-44.9-14.5m-26-63.2c4.1-46.7 44-81.9 92.8-81.9 24.8 0 44.4 8.8 57.3 24.5l-149.9 73.4c-.6-5.2-.7-10.6-.2-16" class="st0" style="fill:#fff;fill-opacity:1"/><path id="path42" d="m1823.9 282.4 199.8-97.8c-12-64.8-62.9-109.1-132.9-109.1-80.1 0-147.3 58.2-154.3 138.2-7 80.1 52.2 145 132.3 145 13 0 25.9-1.6 38.4-4.7 1.4-.3 2.7-.7 4.1-1.1l16.9-75.1c-17.4 12.2-38.6 19.1-59.4 19.1-17.1.2-32.6-5-44.9-14.5m-26-63.2c4.1-46.7 44-81.9 92.8-81.9 24.8 0 44.4 8.8 57.3 24.5l-149.9 73.4c-.6-5.2-.6-10.6-.2-16" class="st0" style="fill:#fff;fill-opacity:1"/></g><g id="g2844" style="fill:#fff;fill-opacity:1" transform="translate(9.42)"><path id="path82" d="m318.22 289.26.72-3.2c-6.1 1.75-14.39 3.2-25.36 3.2H268.1a46.1 46.1 0 0 1-36.12-17.4 46 46 0 0 1-9.01-39.02l24.64-109.1h50.72l-25.26 112.1a6.7 6.7 0 0 0 1.24 5.6 6.6 6.6 0 0 0 5.18 2.48h35.71a16.3 16.3 0 0 0 16.05-12.84l24.33-107.35h50.72l-37.37 165.63z" class="st1" style="stroke-width:1.03519;fill:#fff;fill-opacity:1"/><path id="path88" d="m769.15 289.26 37.37-165.63h50.72l-.72 3.2c6.1-1.75 14.38-3.2 25.36-3.2h33.64l-10.25 45.34h-45.03a16.3 16.3 0 0 0-16.04 12.84l-24.23 107.35z" class="st1" style="stroke-width:1.03519;fill:#fff;fill-opacity:1"/><path id="path94" d="M638.4 289.26a46.1 46.1 0 0 1-36.13-17.4 46 46 0 0 1-9-39.02l13.66-60.87a61.9 61.9 0 0 1 60.66-48.24h57.56a46.1 46.1 0 0 1 36.13 17.4 46 46 0 0 1 9 39.02l-1.65 7.35a55.4 55.4 0 0 1-35.3 40.06h26.08l-3 13.46a61.74 61.74 0 0 1-60.56 48.45H638.4zm4.97-53.42a6.7 6.7 0 0 0 1.24 5.6 6.6 6.6 0 0 0 5.18 2.48h43.58c6.83 0 12.63-4.66 14.18-11.28l.42-1.87H644.5zm66.36-50.51c4.96 0 9.31-3.42 10.35-8.28a6.5 6.5 0 0 0-1.24-5.49 6.4 6.4 0 0 0-5.08-2.38h-42.13A16.3 16.3 0 0 0 655.58 182l-.72 3.32z" class="st1" style="stroke-width:1.03519;fill:#fff;fill-opacity:1"/><path id="path100" d="m388.92 305.51 41-181.78h50.72l-.73 3.21c6.11-1.76 14.4-3.2 25.37-3.2h31.26a46.1 46.1 0 0 1 36.13 17.38 46 46 0 0 1 9 39.03l-11.9 53a61.74 61.74 0 0 1-60.56 48.45h-36.54c-12.63 0-21.12-1.97-26.71-4.14l-6.42 28.26zm94.62-136.43a16.3 16.3 0 0 0-16.05 12.83l-10.35 45.96a6.7 6.7 0 0 0 1.24 5.6 6.6 6.6 0 0 0 5.18 2.48h41.5a16.5 16.5 0 0 0 16.16-12.84l10.35-45.96c.41-1.97 0-4.04-1.24-5.59a6.6 6.6 0 0 0-5.18-2.48z" class="st1" style="stroke-width:1.03519;fill:#fff;fill-opacity:1"/><path id="path106" d="M36.85 289.26a46.1 46.1 0 0 1-36.13-17.4 46 46 0 0 1-9-39.02l1.14-5.17 5.38-.31h45.34l-1.86 8.38a6.7 6.7 0 0 0 1.24 5.6 6.6 6.6 0 0 0 5.18 2.48h85.09a16.5 16.5 0 0 0 16.15-12.84l3.93-17.5a10.18 10.18 0 0 0-9.94-12.52h-82.5a49.3 49.3 0 0 1-38.72-18.63 49.4 49.4 0 0 1-9.63-41.83l3.84-17.18a61.95 61.95 0 0 1 60.66-48.24h100.1a45.8 45.8 0 0 1 36.13 17.4 45.7 45.7 0 0 1 8.9 39.02l-1.14 5.17-5.28.21h-44.92l1.86-8.38c.41-1.97 0-4.04-1.24-5.6a6.6 6.6 0 0 0-5.18-2.48h-85.2a16.3 16.3 0 0 0-16.04 12.84l-2.17 9.83a10.18 10.18 0 0 0 9.93 12.53h93.8a40 40 0 0 1 31.46 15.11 40 40 0 0 1 7.76 34.06l-8.28 36.13a61.8 61.8 0 0 1-60.45 48.24z" class="st1" style="stroke-width:1.03519;fill:#fff;fill-opacity:1"/></g></g></svg>
